report_00007_2020-12-11T15:55:29.892Z/largest-contentful-paint/comparison/line/9_vs_10.svg

<svg width="640" height="490" xmlns="http://www.w3.org/2000/svg" xmlns:xlink="http://www.w3.org/1999/xlink"><path fill="#fff" d="M0 0h640v490H0z"/><defs><path id="d" stroke-width=".222" stroke="currentColor" d="M-1-1h2v2h-2z"/><path id="b" stroke-width=".222" stroke="currentColor" d="M0-1.33l-1.33 2h2.66z"/><path id="f" stroke-width=".222" stroke="currentColor" d="M0 1.33L1.265.411.782-1.067l-1.564-.009-.483 1.487z"/><use xlink:href="#b" id="c" stroke="currentColor" transform="rotate(180)"/><use xlink:href="#d" id="e" stroke="currentColor" transform="rotate(45)"/><circle id="a" stroke-width=".222" stroke="currentColor" cx="0" cy="0" r="1"/></defs><g fill="none" color="#000" stroke="currentColor"><path stroke="#000" d="M62.2 410.5h9m543.8 0h-9"/><text transform="translate(53.9 414.4)" stroke="none" fill="#000" font-family="Arial" font-size="12" text-anchor="end"><tspan>2500</tspan></text></g><g fill="none" color="#000" stroke="currentColor"><path stroke="#000" d="M62.2 368.4h9m543.8 0h-9"/><text transform="translate(53.9 372.3)" stroke="none" fill="#000" font-family="Arial" font-size="12" text-anchor="end"><tspan>2600</tspan></text></g><g fill="none" color="#000" stroke="currentColor"><path stroke="#000" d="M62.2 326.3h9m543.8 0h-9"/><text transform="translate(53.9 330.2)" stroke="none" fill="#000" font-family="Arial" font-size="12" text-anchor="end"><tspan>2700</tspan></text></g><g fill="none" color="#000" stroke="currentColor"><path stroke="#000" d="M62.2 284.3h9m543.8 0h-9"/><text transform="translate(53.9 288.2)" stroke="none" fill="#000" font-family="Arial" font-size="12" text-anchor="end"><tspan>2800</tspan></text></g><g fill="none" color="#000" stroke="currentColor"><path stroke="#000" d="M62.2 242.2h9m543.8 0h-9"/><text transform="translate(53.9 246.1)" stroke="none" fill="#000" font-family="Arial" font-size="12" text-anchor="end"><tspan>2900</tspan></text></g><g fill="none" color="#000" stroke="currentColor"><path stroke="#000" d="M62.2 200.2h9m543.8 0h-9"/><text transform="translate(53.9 204.1)" stroke="none" fill="#000" font-family="Arial" font-size="12" text-anchor="end"><tspan>3000</tspan></text></g><g fill="none" color="#000" stroke="currentColor"><path stroke="#000" d="M62.2 158.1h9m543.8 0h-9"/><text transform="translate(53.9 162)" stroke="none" fill="#000" font-family="Arial" font-size="12" text-anchor="end"><tspan>3100</tspan></text></g><g fill="none" color="#000" stroke="currentColor"><path stroke="#000" d="M62.2 116h9m543.8 0h-9"/><text transform="translate(53.9 119.9)" stroke="none" fill="#000" font-family="Arial" font-size="12" text-anchor="end"><tspan>3200</tspan></text></g><g fill="none" color="#000" stroke="currentColor"><path stroke="#000" d="M62.2 74h9M615 74h-9"/><text transform="translate(53.9 77.9)" stroke="none" fill="#000" font-family="Arial" font-size="12" text-anchor="end"><tspan>3300</tspan></text></g><g fill="none" color="#000" stroke="currentColor"><path stroke="#000" d="M62.2 31.9h9m543.8 0h-9"/><text transform="translate(53.9 35.8)" stroke="none" fill="#000" font-family="Arial" font-size="12" text-anchor="end"><tspan>3400</tspan></text></g><g fill="none" color="#000" stroke="currentColor"><path stroke="#000" d="M62.2 418v-9m0-390.9v9"/><text transform="translate(62.2 439.9)" stroke="none" fill="#000" font-family="Arial" font-size="12" text-anchor="middle"><tspan>0</tspan></text></g><g fill="none" color="#000" stroke="currentColor"><path stroke="#000" d="M118 418v-9m0-390.9v9"/><text transform="translate(118 439.9)" stroke="none" fill="#000" font-family="Arial" font-size="12" text-anchor="middle"><tspan>10</tspan></text></g><g fill="none" color="#000" stroke="currentColor"><path stroke="#000" d="M173.9 418v-9m0-390.9v9"/><text transform="translate(173.9 439.9)" stroke="none" fill="#000" font-family="Arial" font-size="12" text-anchor="middle"><tspan>20</tspan></text></g><g fill="none" color="#000" stroke="currentColor"><path stroke="#000" d="M229.7 418v-9m0-390.9v9"/><text transform="translate(229.7 439.9)" stroke="none" fill="#000" font-family="Arial" font-size="12" text-anchor="middle"><tspan>30</tspan></text></g><g fill="none" color="#000" stroke="currentColor"><path stroke="#000" d="M285.6 418v-9m0-390.9v9"/><text transform="translate(285.6 439.9)" stroke="none" fill="#000" font-family="Arial" font-size="12" text-anchor="middle"><tspan>40</tspan></text></g><g fill="none" color="#000" stroke="currentColor"><path stroke="#000" d="M341.4 418v-9m0-390.9v9"/><text transform="translate(341.4 439.9)" stroke="none" fill="#000" font-family="Arial" font-size="12" text-anchor="middle"><tspan>50</tspan></text></g><g fill="none" color="#000" stroke="currentColor"><path stroke="#000" d="M397.2 418v-9m0-390.9v9"/><text transform="translate(397.2 439.9)" stroke="none" fill="#000" font-family="Arial" font-size="12" text-anchor="middle"><tspan>60</tspan></text></g><g fill="none" color="#000" stroke="currentColor"><path stroke="#000" d="M453.1 418v-9m0-390.9v9"/><text transform="translate(453.1 439.9)" stroke="none" fill="#000" font-family="Arial" font-size="12" text-anchor="middle"><tspan>70</tspan></text></g><g fill="none" color="#000" stroke="currentColor"><path stroke="#000" d="M508.9 418v-9m0-390.9v9"/><text transform="translate(508.9 439.9)" stroke="none" fill="#000" font-family="Arial" font-size="12" text-anchor="middle"><tspan>80</tspan></text></g><g fill="none" color="#000" stroke="currentColor"><path stroke="#000" d="M564.7 418v-9m0-390.9v9"/><text transform="translate(564.7 439.9)" stroke="none" fill="#000" font-family="Arial" font-size="12" text-anchor="middle"><tspan>90</tspan></text></g><path stroke="#000" d="M62.2 18.1V418H615V18.1H62.2z" fill="none" color="#000"/><text transform="translate(279.8 457.9)" stroke="none" fill="#000" font-family="Arial" font-size="12" text-anchor="end" color="#000"><tspan>pages+cached+noexternal+nocss</tspan></text><path stroke="#9400D3" d="M288.1 454h42.2M62.2 407.5l5.6-30.5 5.6-1 5.6 33 5.5-34.2 5.6.5 5.6 32.8 5.6 1.7 5.6-2.4 5.6.4 5.5-.9 5.6-378.3 5.6 378 5.6-30.1 5.6 30.5 5.6.4 5.5.2 5.6.8 5.6-348.2 5.6-34.4 5.6 379.9 5.6-28.6 5.5 29 5.6.2 5.6 2.4 5.6.6 5.6-2.9 5.6-3.2 5.5 4.8 5.6-1.7 5.6-.9 5.6 1.6 5.6.8 5.6-.4 5.6-.5 5.5-3.3 5.6-374.4 5.6 347.1 5.6 30.7 5.6 2.9 5.6-.4 5.5-1.9 5.6-28.6 5.6-349.8 5.6 378.7 5.6 1.3 5.6-.3 5.5-.3 5.6-4.2 5.6 4.3h5.6l5.6-1.1 5.6-31.5 5.5 30.8 5.6-32.3 5.6 31.5 5.6 4 5.6-2.8 5.6 1.1 5.5-.1 5.6.8 5.6-.9 5.6-30.8L414 407l5.6-31.1 5.5.4 5.6-2 5.6 32.7 5.6-.4 5.6-31.1 5.6 34.8 5.6-35.1 5.5 32.3 5.6-.8 5.6-.1 5.6-30.4 5.6 29.5 5.6-347 5.5 348.3 5.6-.1 5.6 2.1 5.6-2.7 5.6-30.2 5.6-.3 5.5 31.7 5.6-29.1 5.6 28.6 5.6 1.1 5.6-2.3 5.6 3.3 5.5-.9 5.6-1 5.6.2 5.6 1.6 5.6-32.4 5.6-315.8 5.5 346.3 5.6.1L609.4 60l5.6 315.2" fill="none" color="#000"/><text transform="translate(279.8 475.9)" stroke="none" fill="#000" font-family="Arial" font-size="12" text-anchor="end" color="#000"><tspan>score p10=2500</tspan></text><path stroke="#009E73" d="M288.1 472h42.2M62.2 410.5H615" fill="none" color="#000"/><text transform="translate(579.3 457.9)" stroke="none" fill="#000" font-family="Arial" font-size="12" text-anchor="end" color="#000"><tspan>score median=4000</tspan></text><path stroke="#56B4E9" d="M587.6 454h42.2" fill="none" color="#000"/><g fill="none" color="#000" stroke="currentColor"><path stroke="#000" d="M62.2 18.1V418H615V18.1H62.2z"/></g></svg>

<?xml version="1.0" encoding="utf-8"  standalone="no"?>
<svg 
 width="640" height="490"
 viewBox="0 0 640 490"
 xmlns="http://www.w3.org/2000/svg"
 xmlns:xlink="http://www.w3.org/1999/xlink"
>

<title>Gnuplot</title>
<desc>Produced by GNUPLOT 5.4 patchlevel 0 </desc>

<g id="gnuplot_canvas">

<rect x="0" y="0" width="640" height="490" fill="#ffffff"/>
<defs>

	<circle id='gpDot' r='0.5' stroke-width='0.5' stroke='currentColor'/>
	<path id='gpPt0' stroke-width='0.222' stroke='currentColor' d='M-1,0 h2 M0,-1 v2'/>
	<path id='gpPt1' stroke-width='0.222' stroke='currentColor' d='M-1,-1 L1,1 M1,-1 L-1,1'/>
	<path id='gpPt2' stroke-width='0.222' stroke='currentColor' d='M-1,0 L1,0 M0,-1 L0,1 M-1,-1 L1,1 M-1,1 L1,-1'/>
	<rect id='gpPt3' stroke-width='0.222' stroke='currentColor' x='-1' y='-1' width='2' height='2'/>
	<rect id='gpPt4' stroke-width='0.222' stroke='currentColor' fill='currentColor' x='-1' y='-1' width='2' height='2'/>
	<circle id='gpPt5' stroke-width='0.222' stroke='currentColor' cx='0' cy='0' r='1'/>
	<use xlink:href='#gpPt5' id='gpPt6' fill='currentColor' stroke='none'/>
	<path id='gpPt7' stroke-width='0.222' stroke='currentColor' d='M0,-1.33 L-1.33,0.67 L1.33,0.67 z'/>
	<use xlink:href='#gpPt7' id='gpPt8' fill='currentColor' stroke='none'/>
	<use xlink:href='#gpPt7' id='gpPt9' stroke='currentColor' transform='rotate(180)'/>
	<use xlink:href='#gpPt9' id='gpPt10' fill='currentColor' stroke='none'/>
	<use xlink:href='#gpPt3' id='gpPt11' stroke='currentColor' transform='rotate(45)'/>
	<use xlink:href='#gpPt11' id='gpPt12' fill='currentColor' stroke='none'/>
	<path id='gpPt13' stroke-width='0.222' stroke='currentColor' d='M0,1.330 L1.265,0.411 L0.782,-1.067 L-0.782,-1.076 L-1.265,0.411 z'/>
	<use xlink:href='#gpPt13' id='gpPt14' fill='currentColor' stroke='none'/>
	<filter id='textbox' filterUnits='objectBoundingBox' x='0' y='0' height='1' width='1'>
	  <feFlood flood-color='#FFFFFF' flood-opacity='1' result='bgnd'/>
	  <feComposite in='SourceGraphic' in2='bgnd' operator='atop'/>
	</filter>
	<filter id='greybox' filterUnits='objectBoundingBox' x='0' y='0' height='1' width='1'>
	  <feFlood flood-color='lightgrey' flood-opacity='1' result='grey'/>
	  <feComposite in='SourceGraphic' in2='grey' operator='atop'/>
	</filter>
</defs>
<g fill="none" color="#FFFFFF" stroke="black" stroke-width="1.00" stroke-linecap="butt" stroke-linejoin="miter">
</g>
<g fill="none" color="black" stroke="currentColor" stroke-width="1.00" stroke-linecap="butt" stroke-linejoin="miter">
	<path stroke='black'  d='M62.2,410.5 L71.2,410.5 M615.0,410.5 L606.0,410.5  '/>	<g transform="translate(53.9,414.4)" stroke="none" fill="black" font-family="Arial" font-size="12.00"  text-anchor="end">
		<text><tspan font-family="Arial" > 2500</tspan></text>
	</g>
</g>
<g fill="none" color="black" stroke="currentColor" stroke-width="1.00" stroke-linecap="butt" stroke-linejoin="miter">
	<path stroke='black'  d='M62.2,368.4 L71.2,368.4 M615.0,368.4 L606.0,368.4  '/>	<g transform="translate(53.9,372.3)" stroke="none" fill="black" font-family="Arial" font-size="12.00"  text-anchor="end">
		<text><tspan font-family="Arial" > 2600</tspan></text>
	</g>
</g>
<g fill="none" color="black" stroke="currentColor" stroke-width="1.00" stroke-linecap="butt" stroke-linejoin="miter">
	<path stroke='black'  d='M62.2,326.3 L71.2,326.3 M615.0,326.3 L606.0,326.3  '/>	<g transform="translate(53.9,330.2)" stroke="none" fill="black" font-family="Arial" font-size="12.00"  text-anchor="end">
		<text><tspan font-family="Arial" > 2700</tspan></text>
	</g>
</g>
<g fill="none" color="black" stroke="currentColor" stroke-width="1.00" stroke-linecap="butt" stroke-linejoin="miter">
	<path stroke='black'  d='M62.2,284.3 L71.2,284.3 M615.0,284.3 L606.0,284.3  '/>	<g transform="translate(53.9,288.2)" stroke="none" fill="black" font-family="Arial" font-size="12.00"  text-anchor="end">
		<text><tspan font-family="Arial" > 2800</tspan></text>
	</g>
</g>
<g fill="none" color="black" stroke="currentColor" stroke-width="1.00" stroke-linecap="butt" stroke-linejoin="miter">
	<path stroke='black'  d='M62.2,242.2 L71.2,242.2 M615.0,242.2 L606.0,242.2  '/>	<g transform="translate(53.9,246.1)" stroke="none" fill="black" font-family="Arial" font-size="12.00"  text-anchor="end">
		<text><tspan font-family="Arial" > 2900</tspan></text>
	</g>
</g>
<g fill="none" color="black" stroke="currentColor" stroke-width="1.00" stroke-linecap="butt" stroke-linejoin="miter">
	<path stroke='black'  d='M62.2,200.2 L71.2,200.2 M615.0,200.2 L606.0,200.2  '/>	<g transform="translate(53.9,204.1)" stroke="none" fill="black" font-family="Arial" font-size="12.00"  text-anchor="end">
		<text><tspan font-family="Arial" > 3000</tspan></text>
	</g>
</g>
<g fill="none" color="black" stroke="currentColor" stroke-width="1.00" stroke-linecap="butt" stroke-linejoin="miter">
	<path stroke='black'  d='M62.2,158.1 L71.2,158.1 M615.0,158.1 L606.0,158.1  '/>	<g transform="translate(53.9,162.0)" stroke="none" fill="black" font-family="Arial" font-size="12.00"  text-anchor="end">
		<text><tspan font-family="Arial" > 3100</tspan></text>
	</g>
</g>
<g fill="none" color="black" stroke="currentColor" stroke-width="1.00" stroke-linecap="butt" stroke-linejoin="miter">
	<path stroke='black'  d='M62.2,116.0 L71.2,116.0 M615.0,116.0 L606.0,116.0  '/>	<g transform="translate(53.9,119.9)" stroke="none" fill="black" font-family="Arial" font-size="12.00"  text-anchor="end">
		<text><tspan font-family="Arial" > 3200</tspan></text>
	</g>
</g>
<g fill="none" color="black" stroke="currentColor" stroke-width="1.00" stroke-linecap="butt" stroke-linejoin="miter">
	<path stroke='black'  d='M62.2,74.0 L71.2,74.0 M615.0,74.0 L606.0,74.0  '/>	<g transform="translate(53.9,77.9)" stroke="none" fill="black" font-family="Arial" font-size="12.00"  text-anchor="end">
		<text><tspan font-family="Arial" > 3300</tspan></text>
	</g>
</g>
<g fill="none" color="black" stroke="currentColor" stroke-width="1.00" stroke-linecap="butt" stroke-linejoin="miter">
	<path stroke='black'  d='M62.2,31.9 L71.2,31.9 M615.0,31.9 L606.0,31.9  '/>	<g transform="translate(53.9,35.8)" stroke="none" fill="black" font-family="Arial" font-size="12.00"  text-anchor="end">
		<text><tspan font-family="Arial" > 3400</tspan></text>
	</g>
</g>
<g fill="none" color="black" stroke="currentColor" stroke-width="1.00" stroke-linecap="butt" stroke-linejoin="miter">
	<path stroke='black'  d='M62.2,418.0 L62.2,409.0 M62.2,18.1 L62.2,27.1  '/>	<g transform="translate(62.2,439.9)" stroke="none" fill="black" font-family="Arial" font-size="12.00"  text-anchor="middle">
		<text><tspan font-family="Arial" > 0</tspan></text>
	</g>
</g>
<g fill="none" color="black" stroke="currentColor" stroke-width="1.00" stroke-linecap="butt" stroke-linejoin="miter">
	<path stroke='black'  d='M118.0,418.0 L118.0,409.0 M118.0,18.1 L118.0,27.1  '/>	<g transform="translate(118.0,439.9)" stroke="none" fill="black" font-family="Arial" font-size="12.00"  text-anchor="middle">
		<text><tspan font-family="Arial" > 10</tspan></text>
	</g>
</g>
<g fill="none" color="black" stroke="currentColor" stroke-width="1.00" stroke-linecap="butt" stroke-linejoin="miter">
	<path stroke='black'  d='M173.9,418.0 L173.9,409.0 M173.9,18.1 L173.9,27.1  '/>	<g transform="translate(173.9,439.9)" stroke="none" fill="black" font-family="Arial" font-size="12.00"  text-anchor="middle">
		<text><tspan font-family="Arial" > 20</tspan></text>
	</g>
</g>
<g fill="none" color="black" stroke="currentColor" stroke-width="1.00" stroke-linecap="butt" stroke-linejoin="miter">
	<path stroke='black'  d='M229.7,418.0 L229.7,409.0 M229.7,18.1 L229.7,27.1  '/>	<g transform="translate(229.7,439.9)" stroke="none" fill="black" font-family="Arial" font-size="12.00"  text-anchor="middle">
		<text><tspan font-family="Arial" > 30</tspan></text>
	</g>
</g>
<g fill="none" color="black" stroke="currentColor" stroke-width="1.00" stroke-linecap="butt" stroke-linejoin="miter">
	<path stroke='black'  d='M285.6,418.0 L285.6,409.0 M285.6,18.1 L285.6,27.1  '/>	<g transform="translate(285.6,439.9)" stroke="none" fill="black" font-family="Arial" font-size="12.00"  text-anchor="middle">
		<text><tspan font-family="Arial" > 40</tspan></text>
	</g>
</g>
<g fill="none" color="black" stroke="currentColor" stroke-width="1.00" stroke-linecap="butt" stroke-linejoin="miter">
	<path stroke='black'  d='M341.4,418.0 L341.4,409.0 M341.4,18.1 L341.4,27.1  '/>	<g transform="translate(341.4,439.9)" stroke="none" fill="black" font-family="Arial" font-size="12.00"  text-anchor="middle">
		<text><tspan font-family="Arial" > 50</tspan></text>
	</g>
</g>
<g fill="none" color="black" stroke="currentColor" stroke-width="1.00" stroke-linecap="butt" stroke-linejoin="miter">
	<path stroke='black'  d='M397.2,418.0 L397.2,409.0 M397.2,18.1 L397.2,27.1  '/>	<g transform="translate(397.2,439.9)" stroke="none" fill="black" font-family="Arial" font-size="12.00"  text-anchor="middle">
		<text><tspan font-family="Arial" > 60</tspan></text>
	</g>
</g>
<g fill="none" color="black" stroke="currentColor" stroke-width="1.00" stroke-linecap="butt" stroke-linejoin="miter">
	<path stroke='black'  d='M453.1,418.0 L453.1,409.0 M453.1,18.1 L453.1,27.1  '/>	<g transform="translate(453.1,439.9)" stroke="none" fill="black" font-family="Arial" font-size="12.00"  text-anchor="middle">
		<text><tspan font-family="Arial" > 70</tspan></text>
	</g>
</g>
<g fill="none" color="black" stroke="currentColor" stroke-width="1.00" stroke-linecap="butt" stroke-linejoin="miter">
	<path stroke='black'  d='M508.9,418.0 L508.9,409.0 M508.9,18.1 L508.9,27.1  '/>	<g transform="translate(508.9,439.9)" stroke="none" fill="black" font-family="Arial" font-size="12.00"  text-anchor="middle">
		<text><tspan font-family="Arial" > 80</tspan></text>
	</g>
</g>
<g fill="none" color="black" stroke="currentColor" stroke-width="1.00" stroke-linecap="butt" stroke-linejoin="miter">
	<path stroke='black'  d='M564.7,418.0 L564.7,409.0 M564.7,18.1 L564.7,27.1  '/>	<g transform="translate(564.7,439.9)" stroke="none" fill="black" font-family="Arial" font-size="12.00"  text-anchor="middle">
		<text><tspan font-family="Arial" > 90</tspan></text>
	</g>
</g>
<g fill="none" color="black" stroke="currentColor" stroke-width="1.00" stroke-linecap="butt" stroke-linejoin="miter">
</g>
<g fill="none" color="black" stroke="currentColor" stroke-width="1.00" stroke-linecap="butt" stroke-linejoin="miter">
	<path stroke='black'  d='M62.2,18.1 L62.2,418.0 L615.0,418.0 L615.0,18.1 L62.2,18.1 Z  '/></g>
<g fill="none" color="black" stroke="currentColor" stroke-width="1.00" stroke-linecap="butt" stroke-linejoin="miter">
</g>
	<g id="gnuplot_plot_1" ><title>pages+cached+noexternal+nocss</title>
<g fill="none" color="black" stroke="currentColor" stroke-width="1.00" stroke-linecap="butt" stroke-linejoin="miter">
	<g transform="translate(279.8,457.9)" stroke="none" fill="black" font-family="Arial" font-size="12.00"  text-anchor="end">
		<text><tspan font-family="Arial" >pages+cached+noexternal+nocss</tspan></text>
	</g>
</g>
<g fill="none" color="black" stroke="currentColor" stroke-width="1.00" stroke-linecap="butt" stroke-linejoin="miter">
	<path stroke='rgb(148,   0, 211)'  d='M288.1,454.0 L330.3,454.0 M62.2,407.5 L67.8,377.0 L73.4,376.0 L79.0,409.0 L84.5,374.8 L90.1,375.3
		L95.7,408.1 L101.3,409.8 L106.9,407.4 L112.5,407.8 L118.0,406.9 L123.6,28.6 L129.2,406.6 L134.8,376.5
		L140.4,407.0 L146.0,407.4 L151.5,407.6 L157.1,408.4 L162.7,60.2 L168.3,25.8 L173.9,405.7 L179.5,377.1
		L185.0,406.1 L190.6,406.3 L196.2,408.7 L201.8,409.3 L207.4,406.4 L213.0,403.2 L218.5,408.0 L224.1,406.3
		L229.7,405.4 L235.3,407.0 L240.9,407.8 L246.5,407.4 L252.1,406.9 L257.6,403.6 L263.2,29.2 L268.8,376.3
		L274.4,407.0 L280.0,409.9 L285.6,409.5 L291.1,407.6 L296.7,379.0 L302.3,29.2 L307.9,407.9 L313.5,409.2
		L319.1,408.9 L324.6,408.6 L330.2,404.4 L335.8,408.7 L341.4,408.7 L347.0,407.6 L352.6,376.1 L358.1,406.9
		L363.7,374.6 L369.3,406.1 L374.9,410.1 L380.5,407.3 L386.1,408.4 L391.6,408.3 L397.2,409.1 L402.8,408.2
		L408.4,377.4 L414.0,407.0 L419.6,375.9 L425.1,376.3 L430.7,374.3 L436.3,407.0 L441.9,406.6 L447.5,375.5
		L453.1,410.3 L458.7,375.2 L464.2,407.5 L469.8,406.7 L475.4,406.6 L481.0,376.2 L486.6,405.7 L492.2,58.7
		L497.7,407.0 L503.3,406.9 L508.9,409.0 L514.5,406.3 L520.1,376.1 L525.7,375.8 L531.2,407.5 L536.8,378.4
		L542.4,407.0 L548.0,408.1 L553.6,405.8 L559.2,409.1 L564.7,408.2 L570.3,407.2 L575.9,407.4 L581.5,409.0
		L587.1,376.6 L592.7,60.8 L598.2,407.1 L603.8,407.2 L609.4,60.0 L615.0,375.2  '/></g>
	</g>
	<g id="gnuplot_plot_2" ><title>score p10=2500</title>
<g fill="none" color="black" stroke="currentColor" stroke-width="1.00" stroke-linecap="butt" stroke-linejoin="miter">
	<g transform="translate(279.8,475.9)" stroke="none" fill="black" font-family="Arial" font-size="12.00"  text-anchor="end">
		<text><tspan font-family="Arial" >score p10=2500</tspan></text>
	</g>
</g>
<g fill="none" color="black" stroke="currentColor" stroke-width="1.00" stroke-linecap="butt" stroke-linejoin="miter">
	<path stroke='rgb(  0, 158, 115)'  d='M288.1,472.0 L330.3,472.0 M62.2,410.5 L67.8,410.5 L73.4,410.5 L79.0,410.5 L84.5,410.5 L90.1,410.5
		L95.7,410.5 L101.3,410.5 L106.9,410.5 L112.5,410.5 L118.0,410.5 L123.6,410.5 L129.2,410.5 L134.8,410.5
		L140.4,410.5 L146.0,410.5 L151.5,410.5 L157.1,410.5 L162.7,410.5 L168.3,410.5 L173.9,410.5 L179.5,410.5
		L185.0,410.5 L190.6,410.5 L196.2,410.5 L201.8,410.5 L207.4,410.5 L213.0,410.5 L218.5,410.5 L224.1,410.5
		L229.7,410.5 L235.3,410.5 L240.9,410.5 L246.5,410.5 L252.1,410.5 L257.6,410.5 L263.2,410.5 L268.8,410.5
		L274.4,410.5 L280.0,410.5 L285.6,410.5 L291.1,410.5 L296.7,410.5 L302.3,410.5 L307.9,410.5 L313.5,410.5
		L319.1,410.5 L324.6,410.5 L330.2,410.5 L335.8,410.5 L341.4,410.5 L347.0,410.5 L352.6,410.5 L358.1,410.5
		L363.7,410.5 L369.3,410.5 L374.9,410.5 L380.5,410.5 L386.1,410.5 L391.6,410.5 L397.2,410.5 L402.8,410.5
		L408.4,410.5 L414.0,410.5 L419.6,410.5 L425.1,410.5 L430.7,410.5 L436.3,410.5 L441.9,410.5 L447.5,410.5
		L453.1,410.5 L458.7,410.5 L464.2,410.5 L469.8,410.5 L475.4,410.5 L481.0,410.5 L486.6,410.5 L492.2,410.5
		L497.7,410.5 L503.3,410.5 L508.9,410.5 L514.5,410.5 L520.1,410.5 L525.7,410.5 L531.2,410.5 L536.8,410.5
		L542.4,410.5 L548.0,410.5 L553.6,410.5 L559.2,410.5 L564.7,410.5 L570.3,410.5 L575.9,410.5 L581.5,410.5
		L587.1,410.5 L592.7,410.5 L598.2,410.5 L603.8,410.5 L609.4,410.5 L615.0,410.5  '/></g>
	</g>
	<g id="gnuplot_plot_3" ><title>score median=4000</title>
<g fill="none" color="black" stroke="currentColor" stroke-width="1.00" stroke-linecap="butt" stroke-linejoin="miter">
	<g transform="translate(579.3,457.9)" stroke="none" fill="black" font-family="Arial" font-size="12.00"  text-anchor="end">
		<text><tspan font-family="Arial" >score median=4000</tspan></text>
	</g>
</g>
<g fill="none" color="black" stroke="currentColor" stroke-width="1.00" stroke-linecap="butt" stroke-linejoin="miter">
	<path stroke='rgb( 86, 180, 233)'  d='M587.6,454.0 L629.8,454.0  '/></g>
	</g>
<g fill="none" color="#FFFFFF" stroke="rgb( 86, 180, 233)" stroke-width="2.00" stroke-linecap="butt" stroke-linejoin="miter">
</g>
<g fill="none" color="black" stroke="currentColor" stroke-width="2.00" stroke-linecap="butt" stroke-linejoin="miter">
</g>
<g fill="none" color="black" stroke="black" stroke-width="1.00" stroke-linecap="butt" stroke-linejoin="miter">
</g>
<g fill="none" color="black" stroke="currentColor" stroke-width="1.00" stroke-linecap="butt" stroke-linejoin="miter">
	<path stroke='black'  d='M62.2,18.1 L62.2,418.0 L615.0,418.0 L615.0,18.1 L62.2,18.1 Z  '/></g>
<g fill="none" color="black" stroke="currentColor" stroke-width="1.00" stroke-linecap="butt" stroke-linejoin="miter">
</g>
</g>
</svg>
